src/Icon/svgs/message.svg

<svg width="24" height="24" viewBox="0 0 24 24" fill="none" xmlns="http://www.w3.org/2000/svg">
<path fill-rule="evenodd" clip-rule="evenodd" d="M20 4C21.1 4 22 4.9 22 6V18C22 19.1 21.1 20 20 20H4C2.9 20 2 19.1 2 18L2.01 6C2.01 4.9 2.9 4 4 4H20ZM6.5547 7.16795C6.09517 6.8616 5.4743 6.98577 5.16795 7.4453C4.8616 7.90483 4.98577 8.5257 5.4453 8.83205L11.4453 12.832C11.7812 13.056 12.2188 13.056 12.5547 12.832L18.5547 8.83205C19.0142 8.5257 19.1384 7.90483 18.8321 7.4453C18.5257 6.98577 17.9048 6.8616 17.4453 7.16795L12 10.7981L6.5547 7.16795Z" fill="#1B1C1D"/>
</svg>

<svg xmlns="http://www.w3.org/2000/svg" width="24" height="24" fill="none"><path fill-rule="evenodd" d="M20 4c1.1 0 2 .9 2 2v12c0 1.1-.9 2-2 2H4c-1.1 0-2-.9-2-2l.01-12c0-1.1.89-2 1.99-2h16zM6.555 7.168a1 1 0 1 0-1.109 1.664l6 4a1 1 0 0 0 1.109 0l6-4a1 1 0 0 0-1.109-1.664L12 10.798l-5.445-3.63z" fill="#1B1C1D"/></svg>
